src/lib/images/keresverse/keresverse-logo.svg

<svg viewBox="0 0 1433 221" fill="none" xmlns="http://www.w3.org/2000/svg">
<path d="M291.784 52.0599V24.9517H183.582V187.137H291.784V160.029H210.69V119.482H278.113V92.606H210.69V52.0599H291.784Z" fill="#fff"/>
<path d="M432.334 187.137L388.313 116.702C404.069 112.3 423.995 100.947 423.995 72.2172C423.995 24.9517 369.779 24.9517 369.779 24.9517H315.793V52.0599L341.511 92.606H315.793V187.137H342.899V119.482H358.425L400.592 187.137H432.334ZM347.997 52.0599H369.779C369.779 52.0599 396.885 52.0599 396.885 72.2172C396.885 88.204 380.434 91.6793 373.253 92.3744L347.997 52.0599Z" fill="#fff"/>
<path d="M559.12 52.0599V24.9517H450.918V187.137H559.12V160.029H478.027V119.482H545.45V92.606H478.027V52.0599H559.12Z" fill="#fff"/>
<path d="M632.187 187.137C658.368 187.137 682.696 168.834 682.696 139.872C682.696 120.642 673.428 105.813 656.282 97.9351C644.698 92.606 633.345 92.606 632.187 92.606C620.138 92.606 608.555 85.6554 608.555 72.2172C608.555 59.2424 619.443 52.0599 632.187 52.0599C644.466 52.0599 655.357 58.7789 655.819 72.2172H682.696C682.233 44.6455 660.222 24.9517 632.187 24.9517C606.006 24.9517 581.445 43.4872 581.445 72.2172C581.445 91.4477 590.945 106.276 607.859 114.154C619.675 119.482 630.796 119.482 632.187 119.482C643.075 119.946 655.819 126.202 655.819 139.872C655.819 152.615 644.698 160.029 632.187 160.029C620.138 160.029 609.017 153.309 608.555 139.872H581.445C581.908 168.139 604.152 186.442 632.187 187.137Z" fill="#fff"/>
<path d="M701.023 24.9517L765.9 187.137L830.541 24.9517H701.023ZM740.877 51.828H790.691L765.9 114.154L740.877 51.828Z" fill="#fff"/>
<path d="M967.776 52.0599V24.9517H859.574V187.137H967.776V160.029H886.684V119.482H954.106V92.606H886.684V52.0599H967.776Z" fill="#fff"/>
<path d="M1120.16 187.137L1076.14 116.702C1091.89 112.3 1111.82 100.947 1111.82 72.2172C1111.82 24.9517 1057.6 24.9517 1057.6 24.9517H1003.62V52.0599L1029.34 92.606H1003.62V187.137H1030.73V119.482H1046.25L1088.42 187.137H1120.16ZM1035.83 52.0599H1057.6C1057.6 52.0599 1084.71 52.0599 1084.71 72.2172C1084.71 88.204 1068.26 91.6793 1061.08 92.3744L1035.83 52.0599Z" fill="#fff"/>
<path d="M1200.31 187.137C1226.49 187.137 1250.82 168.834 1250.82 139.872C1250.82 120.642 1241.55 105.813 1224.41 97.9351C1212.82 92.606 1201.47 92.606 1200.31 92.606C1188.26 92.606 1176.67 85.6554 1176.67 72.2172C1176.67 59.2424 1187.57 52.0599 1200.31 52.0599C1212.58 52.0599 1223.48 58.7789 1223.94 72.2172H1250.82C1250.35 44.6455 1228.34 24.9517 1200.31 24.9517C1174.13 24.9517 1149.57 43.4872 1149.57 72.2172C1149.57 91.4477 1159.07 106.276 1175.98 114.154C1187.8 119.482 1198.92 119.482 1200.31 119.482C1211.2 119.946 1223.94 126.202 1223.94 139.872C1223.94 152.615 1212.82 160.029 1200.31 160.029C1188.26 160.029 1177.14 153.309 1176.67 139.872H1149.57C1150.03 168.139 1172.27 186.442 1200.31 187.137Z" fill="#fff"/>
<path fill-rule="evenodd" clip-rule="evenodd" d="M0 221H1429.37V0H54.7332H0V221ZM125.863 24.9516H162.007L88.0971 107.435L155.52 187.137H120.07L70.0249 127.823L54.7332 144.97V187.137H27.625V16.9315H21.3871V195.157H1403.53V187.137H1287.91V24.952H1396.11V51.8286L1315.02 52.0602V92.6067L1382.43 92.3748V119.483H1348.73H1315.02V160.029H1403.53V16.9315H125.863H54.7332V104.423L125.863 24.9516Z" fill="#fff"/>
</svg>

<svg fill="none" viewBox="0 0 1433 221" xmlns="http://www.w3.org/2000/svg"><g fill="#fff"><path d="m291.784 52.06v-27.108h-108.202v162.185h108.202v-27.108h-81.094v-40.547h67.423v-26.876h-67.423v-40.546zm140.55 135.077-44.021-70.435c15.756-4.402 35.682-15.755 35.682-44.485 0-47.265-54.216-47.265-54.216-47.265h-53.986v27.108l25.718 40.546h-25.718v94.531h27.106v-67.655h15.526l42.167 67.655zm-84.337-135.077h21.782s27.106 0 27.106 20.157c0 15.987-16.451 19.462-23.632 20.157zm211.123 0v-27.108h-108.202v162.185h108.202v-27.108h-81.093v-40.547h67.423v-26.876h-67.423v-40.546zm73.067 135.077c26.181 0 50.509-18.303 50.509-47.265 0-19.23-9.268-34.059-26.414-41.937-11.584-5.329-22.937-5.329-24.095-5.329-12.049 0-23.632-6.95-23.632-20.389 0-12.975 10.888-20.157 23.632-20.157 12.279 0 23.17 6.719 23.632 20.157h26.877c-.463-27.572-22.474-47.265-50.509-47.265-26.181 0-50.742 18.535-50.742 47.265 0 19.23 9.5 34.059 26.414 41.937 11.816 5.328 22.937 5.328 24.328 5.328 10.888.464 23.632 6.72 23.632 20.39 0 12.743-11.121 20.157-23.632 20.157-12.049 0-23.17-6.72-23.632-20.157h-27.11c.463 28.267 22.707 46.57 50.742 47.265zm68.836-162.185 64.877 162.185 64.641-162.185zm39.854 26.876h49.814l-24.791 62.326zm226.899.232v-27.108h-108.202v162.185h108.202v-27.108h-81.092v-40.547h67.422v-26.876h-67.422v-40.546zm152.384 135.077-44.02-70.435c15.75-4.402 35.68-15.755 35.68-44.485 0-47.265-54.22-47.265-54.22-47.265h-53.98v27.108l25.72 40.546h-25.72v94.531h27.11v-67.655h15.52l42.17 67.655zm-84.33-135.077h21.77s27.11 0 27.11 20.157c0 15.987-16.45 19.462-23.63 20.157zm164.48 135.077c26.18 0 50.51-18.303 50.51-47.265 0-19.23-9.27-34.059-26.41-41.937-11.59-5.329-22.94-5.329-24.1-5.329-12.05 0-23.64-6.95-23.64-20.389 0-12.975 10.9-20.157 23.64-20.157 12.27 0 23.17 6.719 23.63 20.157h26.88c-.47-27.572-22.48-47.265-50.51-47.265-26.18 0-50.74 18.535-50.74 47.265 0 19.23 9.5 34.059 26.41 41.937 11.82 5.328 22.94 5.328 24.33 5.328 10.89.464 23.63 6.72 23.63 20.39 0 12.743-11.12 20.157-23.63 20.157-12.05 0-23.17-6.72-23.64-20.157h-27.1c.46 28.267 22.7 46.57 50.74 47.265z"/><path clip-rule="evenodd" d="m0 221h1429.37v-221h-1429.37zm125.863-196.048h36.144l-73.91 82.483 67.423 79.702h-35.45l-50.045-59.314-15.292 17.147v42.167h-27.108v-170.206h-6.238v178.226h1382.143v-8.02h-115.62v-162.185h108.2v26.877l-81.09.231v40.547l67.41-.232v27.108h-67.41v40.546h88.51v-143.097h-1348.797v87.491z" fill-rule="evenodd"/></g></svg>
